public/404-icon.svg

<!DOCTYPE svg PUBLIC "-//W3C//DTD SVG 1.1//EN" "http://www.w3.org/Graphics/SVG/1.1/DTD/svg11.dtd">
<!-- Uploaded to: SVG Repo, www.svgrepo.com, Transformed by: SVG Repo Mixer Tools -->
<svg width="256px" height="256px" viewBox="0 0 1024 1024" class="icon" version="1.1" xmlns="http://www.w3.org/2000/svg" fill="#000000">
<g id="SVGRepo_bgCarrier" stroke-width="0"/>
<g id="SVGRepo_tracerCarrier" stroke-linecap="round" stroke-linejoin="round"/>
<g id="SVGRepo_iconCarrier">
<path d="M373.333333 576c-23.466667 25.6-57.6 42.666667-96 42.666667h-64c-70.4 0-128-57.6-128-128s57.6-128 128-128h64c38.4 0 72.533333 17.066667 96 42.666666h100.266667c-32-74.666667-108.8-128-196.266667-128h-64C96 277.333333 0 373.333333 0 490.666667s96 213.333333 213.333333 213.333333h64c87.466667 0 162.133333-53.333333 196.266667-128h-100.266667zM810.666667 277.333333h-64c-87.466667 0-162.133333 53.333333-196.266667 128h100.266667c23.466667-25.6 57.6-42.666667 96-42.666666h64c70.4 0 128 57.6 128 128s-57.6 128-128 128h-64c-38.4 0-72.533333-17.066667-96-42.666667h-100.266667c32 74.666667 108.8 128 196.266667 128h64c117.333333 0 213.333333-96 213.333333-213.333333s-96-213.333333-213.333333-213.333334z" fill="#1976D2"/>
<path d="M416 85.333333L341.333333 128l130.133334 172.8 27.733333-17.066667zM608 85.333333L682.666667 128l-130.133334 172.8-27.733333-17.066667zM608 938.666667l74.666667-42.666667-130.133334-172.8-27.733333 17.066667zM416 938.666667L341.333333 896l130.133334-172.8 27.733333 17.066667z" fill="#00BCD4"/>
</g>
</svg>

<svg width="256" height="256" viewBox="0 0 1024 1024" class="icon" xmlns="http://www.w3.org/2000/svg"><path d="M373.333 576c-23.466 25.6-57.6 42.667-96 42.667h-64c-70.4 0-128-57.6-128-128s57.6-128 128-128h64c38.4 0 72.534 17.066 96 42.666H473.6c-32-74.666-108.8-128-196.267-128h-64C96 277.333 0 373.333 0 490.667S96 704 213.333 704h64c87.467 0 162.134-53.333 196.267-128H373.333zm437.334-298.667h-64c-87.467 0-162.134 53.334-196.267 128h100.267c23.466-25.6 57.6-42.666 96-42.666h64c70.4 0 128 57.6 128 128s-57.6 128-128 128h-64c-38.4 0-72.534-17.067-96-42.667H550.4c32 74.667 108.8 128 196.267 128h64C928 704 1024 608 1024 490.667s-96-213.334-213.333-213.334z" fill="#1976D2"/><path d="M416 85.333 341.333 128l130.134 172.8 27.733-17.067zm192 0L682.667 128 552.533 300.8 524.8 283.733zm0 853.334L682.667 896 552.533 723.2 524.8 740.267zm-192 0L341.333 896l130.134-172.8 27.733 17.067z" fill="#00BCD4"/></svg>
